Suru++-Ubuntu/apps/symbolic/tresorit-symbolic.svg

<svg width="16" height="16" version="1.1" xmlns="http://www.w3.org/2000/svg">
 <path d="m8.1434427 0.5-6.3934427 3.6885118v1.4525809l7.4478653-4.5327903zm5.3704833 3.0982679-11.763926 7.1596761v1.053545l6.3934427 3.688511 6.3934403-3.688511v-7.6229772z" style="fill:#808080"/>
</svg>

<svg xmlns="http://www.w3.org/2000/svg" width="16" height="16" version="1.1">
 <path style="fill:#808080" d="M 8.1434427,0.5 1.75,4.1885118 V 5.6410927 L 9.1978653,1.1083024 Z M 13.513926,3.5982679 1.75,10.757944 v 1.053545 L 8.1434427,15.5 14.536883,11.811489 V 4.1885118 Z"/>
</svg>
